X: 30
T:Creigiau'r Eryri
T:The Eagle Rocks
T:The Rocks of Snowdon
M:2/4
L:1/8
Q:300
C:Trad
S:51 Welsh Airs
R:?
A:Wales
H:From a facsimile c.1840: A Choice Collection of Fifty-One Welsh Airs
H:adapted for The Harp, Piano-Forte, Harpsichord,
H:Violin, or Flute by Edward Jones
H:"Harper to His Late Majesty King George IV, when
H:Prince of Wales".
Z:brian_martin12345@yahoo.com
K:C
"Cheerful"
c|g>ef>d|(ec)zc|g>ef>d|(ec3/2)z/z|(fa)(eg)|(df)(ce)|dBcd|ed3/2z/:||!
g|d>Bc>d|(ed)zg|d>Bc>d|(ed)ze|(fa)(eg)|(df)(ce)|d/c/B cd|edz:||!
G|c>GF>F|E>EE>E|E>CD>F|(EC)z||
